X: 35795
T: Sally, There's A Bug On Me
R: polka
M: 2/4
K: Dmajor
|:"D" A>d f/g/f/e/|"D" dF A>d|"A" cE G>B|"D" AD F2|
"D" A>d f/g/f/e/|"D" dF A>d|"A" cA Bc|"D" d2 d2:|
K:A
|:"A" [ce]>[f] [ce]>[f]|"A" [ce]>[a] [e2 c2]|"E" bb/a/ ff/g/|"A" ac e2|
"A" [ce]>[f] [ce]>[f]|"A" [ce]>[a] [e2 c2]|"E" bb/a/ fg|"A" a2 a2:|

